dist/svgs/pin2.svg

<svg xmlns="http://www.w3.org/2000/svg" viewBox="0 0 512 512"><path d="M287 341v169h-58V341H122q-14 0-21.5-9.5T94 305l61-61 4-178h-9q-14 2-23-9-10-9-9-22-1-13 9-23 10-9 23-10l219 1q13 0 23 10 9 8 9 22 0 13-9 22-5 5-11 7t-13 3h-9l5 178 61 60q0 36-29 36l-105-1z"/></svg>

<?xml version="1.0" encoding="UTF-8" standalone="no"?><svg   xmlns:svg="http://www.w3.org/2000/svg"   xmlns="http://www.w3.org/2000/svg"   version="1.1"   width="512"   height="512"   viewBox="0 0 512 512">  <path     d="M287 341V510H229V341H122Q108 341 100.5 331.5T94 305L155 244L159 66H150Q136 68 127 57Q117 48 118 35Q117 22 127 12Q137 3 150 2L369 3Q382 3 392 13Q401 21 401 35Q401 48 392 57Q387 62 381 64T368 67H359L364 245L425 305Q425 341 396 341L291 340z"     id="pin2" /></svg>
